app/icons/wi-fi.svg

﻿<svg xmlns="http://www.w3.org/2000/svg" xmlns:xlink="http://www.w3.org/1999/xlink" viewBox="0 0 50 50" version="1.1" width="50" height="50">
<g id="surface1">
<path style=" " d="M 25 7 C 15.609375 7 7.070313 10.730469 0.78125 16.769531 L 0.0585938 17.464844 L 5.59375 23.234375 L 6.320313 22.539063 C 11.175781 17.875 17.75 15 25 15 C 32.25 15 38.824219 17.875 43.683594 22.539063 L 44.40625 23.234375 L 49.941406 17.464844 L 49.21875 16.769531 C 42.929688 10.730469 34.390625 7 25 7 Z M 25 9 C 33.5 9 41.191406 12.292969 47.046875 17.589844 L 44.28125 20.46875 C 39.148438 15.867188 32.417969 13 25 13 C 17.582031 13 10.851563 15.867188 5.71875 20.46875 L 2.953125 17.589844 C 8.808594 12.292969 16.5 9 25 9 Z M 25 19 C 18.832031 19 13.214844 21.453125 9.085938 25.421875 L 8.363281 26.113281 L 13.921875 31.90625 L 14.640625 31.210938 C 17.34375 28.613281 20.972656 27 25 27 C 29.027344 27 32.65625 28.613281 35.359375 31.210938 L 36.078125 31.90625 L 41.636719 26.113281 L 40.917969 25.421875 C 36.785156 21.453125 31.167969 19 25 19 Z M 25 21 C 30.28125 21 35.054688 23.011719 38.746094 26.238281 L 35.957031 29.140625 C 32.996094 26.605469 29.199219 25 25 25 C 20.800781 25 17.003906 26.605469 14.042969 29.140625 L 11.253906 26.238281 C 14.945313 23.011719 19.71875 21 25 21 Z M 25 31 C 22.050781 31 19.367188 32.175781 17.390625 34.074219 L 16.671875 34.765625 L 25 43.441406 L 25.71875 42.691406 L 33.328125 34.765625 L 32.609375 34.074219 C 30.632813 32.175781 27.949219 31 25 31 Z M 25 33 C 27.054688 33 28.859375 33.796875 30.375 34.957031 L 25 40.558594 L 19.625 34.957031 C 21.140625 33.796875 22.945313 33 25 33 Z "/>
</g>
</svg>

<?xml version="1.0" encoding="utf-8"?>
<!-- Generator: Adobe Illustrator 17.0.0, SVG Export Plug-In . SVG Version: 6.00 Build 0)  -->
<!DOCTYPE svg PUBLIC "-//W3C//DTD SVG 1.1//EN" "http://www.w3.org/Graphics/SVG/1.1/DTD/svg11.dtd">
<svg version="1.1" id="Layer_1" xmlns="http://www.w3.org/2000/svg" xmlns:xlink="http://www.w3.org/1999/xlink" x="0px" y="0px"
	 width="50px" height="50px" viewBox="0 0 50 50" enable-background="new 0 0 50 50" xml:space="preserve">
<g>
	<path d="M25,31c-2.949,0-5.633,1.176-7.609,3.074l-0.719,0.691L25,43.441l0.719-0.75l7.609-7.926l-0.719-0.691
		C30.633,32.176,27.949,31,25,31z M25,40.559l-5.375-5.602C21.141,33.797,22.945,33,25,33s3.859,0.797,5.375,1.957L25,40.559z"/>
	<path d="M49.219,16.77C42.93,10.73,34.391,7,25,7S7.07,10.73,0.781,16.77l-0.723,0.695l5.535,5.77l0.727-0.695
		C11.176,17.875,17.75,15,25,15s13.824,2.875,18.684,7.539l0.723,0.695l5.535-5.77L49.219,16.77z M44.281,20.469
		C39.148,15.867,32.418,13,25,13s-14.148,2.867-19.281,7.469L2.953,17.59C8.809,12.293,16.5,9,25,9s16.191,3.293,22.047,8.59
		L44.281,20.469z"/>
	<path d="M25,19c-6.168,0-11.785,2.453-15.914,6.422l-0.723,0.691l5.559,5.793l0.719-0.695C17.344,28.613,20.973,27,25,27
		s7.656,1.613,10.359,4.211l0.719,0.695l5.559-5.793l-0.719-0.691C36.785,21.453,31.168,19,25,19z M35.957,29.141
		C32.996,26.605,29.199,25,25,25s-7.996,1.605-10.957,4.141l-2.789-2.902C14.945,23.012,19.719,21,25,21s10.055,2.012,13.746,5.238
		L35.957,29.141z"/>
</g>
</svg>
